packages/foundations/assets/icons/functional/images/transportation/bike_28_inverted.svg

<svg width="28" height="28" viewBox="0 0 28 28" fill="none" xmlns="http://www.w3.org/2000/svg">
<g clip-path="url(#clip0_2214_6642)">
<path fill-rule="evenodd" clip-rule="evenodd" d="M20.9818 6.83657C21.0651 7.20645 20.8571 7.57407 20.5095 7.69947L19.285 7.98095C20.244 10.9506 20.7235 12.4354 20.7235 12.4354C23.9298 12.0236 26.1187 14.4772 26.1187 17.0626C26.1187 19.648 24.0229 21.7438 21.4375 21.7438C18.8521 21.7438 16.7562 19.648 16.7562 17.0626C16.7562 15.2438 17.7935 13.6672 19.3087 12.8922L18.7967 11.3075L14.7208 17.4005C14.6734 17.4714 14.4569 17.8039 13.817 17.8627L13.1006 17.8687C12.8104 17.8687 12.5499 17.7004 12.4283 17.4431L10.9664 12.9499L10.0961 13.9921C10.7716 14.7688 11.2437 15.8578 11.2437 17.0626C11.2437 19.648 9.14786 21.7438 6.56248 21.7438C3.97709 21.7438 1.88123 19.648 1.88123 17.0626C1.88123 14.4772 3.97709 12.3813 6.56248 12.3813C7.43649 12.3813 8.25457 12.6209 8.95464 13.0378L10.4247 11.2769L9.56285 8.61866L8.74998 8.61883C8.33921 8.61883 8.00623 8.28584 8.00623 7.87508C8.00623 7.49591 8.31463 7.13133 8.74998 7.13133H12.25C12.6607 7.13133 12.9937 7.46431 12.9937 7.87508C12.9937 8.25424 12.6712 8.61866 12.25 8.61866H11.1273L11.7696 10.6014L18.1037 9.16379L17.6196 7.6634C17.4947 7.27691 17.7031 6.86836 18.0751 6.73498L20.0927 6.27452C20.4934 6.18422 20.8915 6.43585 20.9818 6.83657ZM6.56248 13.8688C4.79862 13.8688 3.36873 15.2987 3.36873 17.0626C3.36873 18.8264 4.79862 20.2563 6.56248 20.2563C8.32633 20.2563 9.75623 18.8264 9.75623 17.0626C9.75623 16.3478 9.52144 15.6879 9.12478 15.1558L7.13333 17.5393C6.89531 17.8218 6.40099 17.8936 6.08573 17.6334C5.79673 17.3921 5.69661 16.9234 5.99162 16.5858L7.98317 14.2014C7.55526 13.9885 7.07285 13.8688 6.56248 13.8688ZM21.19 13.8783C21.19 13.8783 21.5084 14.8635 22.1452 16.834C22.2618 17.1948 22.0676 17.6334 21.7055 17.7617C21.3434 17.89 20.8771 17.7291 20.7297 17.2912L19.7748 14.3352C18.8566 14.8962 18.2437 15.9078 18.2437 17.0626C18.2437 18.8264 19.6736 20.2563 21.4375 20.2563C23.2013 20.2563 24.6312 18.8264 24.6312 17.0626C24.6312 15.2987 23.188 13.764 21.19 13.8783ZM17.2978 10.8718L12.2298 12.0224L13.6316 16.3521L17.2978 10.8718Z" fill="#1A1C1F"/>
</g>
<defs>
<clipPath id="clip0_2214_6642">
<rect width="28" height="28" fill="white"/>
</clipPath>
</defs>
</svg>

<svg xmlns="http://www.w3.org/2000/svg" width="28" height="28" fill="none"><g clip-path="url(#a)"><path fill="#1A1C1F" fill-rule="evenodd" d="M20.982 6.837a.744.744 0 0 1-.473.862l-1.224.282 1.439 4.454c3.206-.411 5.395 2.042 5.395 4.628a4.681 4.681 0 1 1-6.81-4.17l-.512-1.586-4.076 6.094c-.048.07-.264.403-.904.462l-.716.006a.74.74 0 0 1-.673-.426l-1.462-4.493-.87 1.042a4.681 4.681 0 1 1-1.141-.954l1.47-1.761-.862-2.658H8.75a.744.744 0 1 1 0-1.488h3.5c.41 0 .744.333.744.744 0 .38-.323.744-.744.744h-1.123l.643 1.982 6.334-1.437-.484-1.5a.744.744 0 0 1 .455-.929l2.018-.46c.4-.09.799.16.889.562m-14.42 7.032a3.194 3.194 0 1 0 2.563 1.287l-1.992 2.383c-.238.283-.732.355-1.047.094-.29-.24-.39-.71-.094-1.047L7.983 14.2a3.2 3.2 0 0 0-1.42-.332m14.628.01.955 2.955c.117.36-.077.8-.44.928a.76.76 0 0 1-.975-.47l-.955-2.957a3.194 3.194 0 1 0 4.856 2.727c0-1.763-1.443-3.298-3.441-3.184m-3.892-3.007-5.068 1.15 1.402 4.33z" clip-rule="evenodd"/></g><defs><clipPath id="a"><path fill="#fff" d="M0 0h28v28H0z"/></clipPath></defs></svg>
